include/LD/assets/icons/custom/custom90.svg

<?xml version="1.0"?><svg xmlns="http://www.w3.org/2000/svg" width="100" height="100" viewBox="0 0 100 100"><g fill="#fff"><path d="m77.4 26l-24.4 3.6v34.4c0 0.6-0.4 1-1 1h-4c-0.6 0-1-0.4-1-1v-33.5l-23.6 3.5h-0.4c-1.5 0-2.8-1.1-3-2.6-0.2-1.6 0.9-3.2 2.5-3.4l18.6-2.8c1.7-3.1 5-5.3 8.8-5.3 2.8 0 5.2 1.1 7 2.9l19.7-2.8c1.6-0.2 3.2 0.9 3.4 2.5 0.2 1.7-0.9 3.2-2.6 3.5z m-36.1 36.9c0.7-0.9 0.9-2 0.4-3.1l-8-19c-0.4-1.1-1.5-1.8-2.7-1.8s-2.3 0.7-2.8 1.8l-8 19c-0.4 0.9-0.3 1.9 0.2 2.8 0.2 0.3 4.1 6.3 10.4 6.3 3.7 0 7.3-2 10.5-6z m-10.3-13.2l4.3 10.3h-8.6l4.3-10.3z m40.8-14.9c-0.5-1.1-1.6-1.8-2.8-1.8s-2.3 0.7-2.8 1.8l-8 19c-0.4 0.9-0.3 1.9 0.2 2.8 0.2 0.3 4.1 6.3 10.4 6.3 3.7 0 7.2-2 10.5-6 0.7-0.9 0.9-2 0.4-3.1l-7.9-19z m-2.8 8.9l4.3 10.3h-8.6l4.3-10.3z m-19 27.3c-5.6 0-11.3 2-15.3 5.4-0.4 0.4-0.7 0.9-0.7 1.5v0.1c0 1.1 0.9 2 2 2h28c1.1 0 2-0.9 2-2v-0.1c0-0.6-0.2-1.1-0.7-1.5-4-3.4-9.7-5.4-15.3-5.4z"></path></g></svg>

<svg xmlns="http://www.w3.org/2000/svg" x="0px" y="0px"
	 width="100px" height="100px" viewBox="0 0 100 100" enable-background="new 0 0 100 100" xml:space="preserve">
<g>
	<path fill="#FFFFFF" d="M77.4,26L53,29.6V64c0,0.6-0.4,1-1,1h-4c-0.6,0-1-0.4-1-1V30.5L23.4,34c-0.2,0-0.3,0-0.4,0
		c-1.5,0-2.8-1.1-3-2.6c-0.2-1.6,0.9-3.2,2.5-3.4l18.6-2.8c1.7-3.1,5-5.3,8.8-5.3c2.8,0,5.2,1.1,7,2.9L76.6,20
		c1.601-0.2,3.2,0.9,3.4,2.5C80.2,24.2,79.1,25.7,77.4,26z"/>
	<path fill="#FFFFFF" d="M41.3,62.9c0.7-0.9,0.9-2,0.4-3.101l-8-19C33.3,39.7,32.2,39,31,39s-2.3,0.7-2.8,1.8l-8,19
		c-0.4,0.9-0.3,1.9,0.2,2.8C20.6,62.9,24.5,68.9,30.8,68.9l0,0C34.5,68.9,38.1,66.9,41.3,62.9z M31,49.7L35.3,60h-8.6L31,49.7z"/>
	<path fill="#FFFFFF" d="M71.8,34.8C71.3,33.7,70.2,33,69,33s-2.3,0.7-2.8,1.8l-8,19c-0.4,0.9-0.3,1.9,0.2,2.8
		C58.6,56.9,62.5,62.9,68.8,62.9l0,0c3.7,0,7.2-2,10.5-6c0.7-0.9,0.9-2,0.4-3.101L71.8,34.8z M69,43.7L73.3,54h-8.6L69,43.7z"/>
	<path fill="#FFFFFF" d="M50,71c-5.6,0-11.3,2-15.3,5.4C34.3,76.8,34,77.3,34,77.9V78c0,1.1,0.9,2,2,2h28c1.1,0,2-0.9,2-2v-0.1
		c0-0.601-0.2-1.101-0.7-1.5C61.3,73,55.6,71,50,71z"/>
</g>
</svg>
